content/blogs/regnskap/hva-er-bokforing/bokforing-prosess-oversikt.svg

<svg xmlns="http://www.w3.org/2000/svg" width="900" height="500" viewBox="0 0 900 500"><path fill="#f8f9fa" d="M0 0h900v500H0z"/><text x="450" y="40" fill="#2c3e50" font-family="Arial, sans-serif" font-size="24" font-weight="bold" text-anchor="middle">
    Bokføringsprosessen
  </text><rect width="150" height="80" x="50" y="80" fill="#3498db" stroke="#2980b9" stroke-width="2" rx="10"/><text x="125" y="110" fill="#fff" font-family="Arial, sans-serif" font-size="14" font-weight="bold" text-anchor="middle">
    1. Transaksjoner
  </text><text x="125" y="130" fill="#fff" font-family="Arial, sans-serif" font-size="12" text-anchor="middle">
    Økonomiske
  </text><text x="125" y="145" fill="#fff" font-family="Arial, sans-serif" font-size="12" text-anchor="middle">
    hendelser
  </text><path fill="none" stroke="#e74c3c" stroke-width="3" d="M210 120h40l-10-10m10 10-10 10"/><rect width="150" height="80" x="270" y="80" fill="#27ae60" stroke="#229954" stroke-width="2" rx="10"/><text x="345" y="110" fill="#fff" font-family="Arial, sans-serif" font-size="14" font-weight="bold" text-anchor="middle">
    2. Bilag
  </text><text x="345" y="130" fill="#fff" font-family="Arial, sans-serif" font-size="12" text-anchor="middle">
    Dokumentasjon
  </text><text x="345" y="145" fill="#fff" font-family="Arial, sans-serif" font-size="12" text-anchor="middle">
    og kontroll
  </text><path fill="none" stroke="#e74c3c" stroke-width="3" d="M430 120h40l-10-10m10 10-10 10"/><rect width="150" height="80" x="490" y="80" fill="#f39c12" stroke="#e67e22" stroke-width="2" rx="10"/><text x="565" y="110" fill="#fff" font-family="Arial, sans-serif" font-size="14" font-weight="bold" text-anchor="middle">
    3. Registrering
  </text><text x="565" y="130" fill="#fff" font-family="Arial, sans-serif" font-size="12" text-anchor="middle">
    Debet og
  </text><text x="565" y="145" fill="#fff" font-family="Arial, sans-serif" font-size="12" text-anchor="middle">
    kredit
  </text><path fill="none" stroke="#e74c3c" stroke-width="3" d="M650 120h40l-10-10m10 10-10 10"/><rect width="150" height="80" x="710" y="80" fill="#9b59b6" stroke="#8e44ad" stroke-width="2" rx="10"/><text x="785" y="110" fill="#fff" font-family="Arial, sans-serif" font-size="14" font-weight="bold" text-anchor="middle">
    4. Hovedbok
  </text><text x="785" y="130" fill="#fff" font-family="Arial, sans-serif" font-size="12" text-anchor="middle">
    Kontoføring
  </text><text x="785" y="145" fill="#fff" font-family="Arial, sans-serif" font-size="12" text-anchor="middle">
    og saldo
  </text><path fill="none" stroke="#e74c3c" stroke-width="3" d="M785 170q0 30-35 50-50 20-300 20t-300-20q-25-10-25-20M125 200l10-5m-10 5 10 5"/><rect width="150" height="80" x="50" y="260" fill="#e74c3c" stroke="#c0392b" stroke-width="2" rx="10"/><text x="125" y="290" fill="#fff" font-family="Arial, sans-serif" font-size="14" font-weight="bold" text-anchor="middle">
    5. Avstemming
  </text><text x="125" y="310" fill="#fff" font-family="Arial, sans-serif" font-size="12" text-anchor="middle">
    Kontroll og
  </text><text x="125" y="325" fill="#fff" font-family="Arial, sans-serif" font-size="12" text-anchor="middle">
    korreksjon
  </text><path fill="none" stroke="#e74c3c" stroke-width="3" d="M210 300h40l-10-10m10 10-10 10"/><rect width="150" height="80" x="270" y="260" fill="#34495e" stroke="#2c3e50" stroke-width="2" rx="10"/><text x="345" y="290" fill="#fff" font-family="Arial, sans-serif" font-size="14" font-weight="bold" text-anchor="middle">
    6. Periodisering
  </text><text x="345" y="310" fill="#fff" font-family="Arial, sans-serif" font-size="12" text-anchor="middle">
    Justeringer
  </text><text x="345" y="325" fill="#fff" font-family="Arial, sans-serif" font-size="12" text-anchor="middle">
    og avsetninger
  </text><path fill="none" stroke="#e74c3c" stroke-width="3" d="M430 300h40l-10-10m10 10-10 10"/><rect width="150" height="80" x="490" y="260" fill="#16a085" stroke="#138d75" stroke-width="2" rx="10"/><text x="565" y="290" fill="#fff" font-family="Arial, sans-serif" font-size="14" font-weight="bold" text-anchor="middle">
    7. Rapporter
  </text><text x="565" y="310" fill="#fff" font-family="Arial, sans-serif" font-size="12" text-anchor="middle">
    Regnskap og
  </text><text x="565" y="325" fill="#fff" font-family="Arial, sans-serif" font-size="12" text-anchor="middle">
    analyser
  </text><path fill="none" stroke="#e74c3c" stroke-width="3" d="M650 300h40l-10-10m10 10-10 10"/><rect width="150" height="80" x="710" y="260" fill="#7f8c8d" stroke="#6c7b7d" stroke-width="2" rx="10"/><text x="785" y="290" fill="#fff" font-family="Arial, sans-serif" font-size="14" font-weight="bold" text-anchor="middle">
    8. Arkivering
  </text><text x="785" y="310" fill="#fff" font-family="Arial, sans-serif" font-size="12" text-anchor="middle">
    Oppbevaring
  </text><text x="785" y="325" fill="#fff" font-family="Arial, sans-serif" font-size="12" text-anchor="middle">
    og sikring
  </text><rect width="500" height="100" x="200" y="380" fill="#ecf0f1" stroke="#bdc3c7" stroke-width="2" rx="10"/><text x="450" y="405" fill="#2c3e50" font-family="Arial, sans-serif" font-size="16" font-weight="bold" text-anchor="middle">
    Grunnleggende Prinsipper
  </text><text x="220" y="430" fill="#2c3e50" font-family="Arial, sans-serif" font-size="12">
    • Fullstendighet: Alle transaksjoner registreres
  </text><text x="220" y="445" fill="#2c3e50" font-family="Arial, sans-serif" font-size="12">
    • Nøyaktighet: Korrekte beløp og datoer
  </text><text x="220" y="460" fill="#2c3e50" font-family="Arial, sans-serif" font-size="12">
    • Sporbarhet: Fra bilag til regnskap
  </text><text x="480" y="430" fill="#2c3e50" font-family="Arial, sans-serif" font-size="12">
    • Kronologi: Tidsmessig rekkefølge
  </text><text x="480" y="445" fill="#2c3e50" font-family="Arial, sans-serif" font-size="12">
    • Klarhet: Forståelige registreringer
  </text><text x="480" y="460" fill="#2c3e50" font-family="Arial, sans-serif" font-size="12">
    • Dobbelt bokføring: Balanserte poster
  </text></svg>

<svg width="900" height="500" viewBox="0 0 900 500" xmlns="http://www.w3.org/2000/svg">

  <rect width="900" height="500" fill="#f8f9fa"/>
  

  <text x="450" y="40" text-anchor="middle" font-family="Arial, sans-serif" font-size="24" font-weight="bold" fill="#2c3e50">
    Bokføringsprosessen
  </text>
  

  <rect x="50" y="80" width="150" height="80" fill="#3498db" stroke="#2980b9" stroke-width="2" rx="10"/>
  <text x="125" y="110" text-anchor="middle" font-family="Arial, sans-serif" font-size="14" font-weight="bold" fill="white">
    1. Transaksjoner
  </text>
  <text x="125" y="130" text-anchor="middle" font-family="Arial, sans-serif" font-size="12" fill="white">
    Økonomiske
  </text>
  <text x="125" y="145" text-anchor="middle" font-family="Arial, sans-serif" font-size="12" fill="white">
    hendelser
  </text>
  

  <path d="M 210 120 L 250 120 L 240 110 M 250 120 L 240 130" stroke="#e74c3c" stroke-width="3" fill="none"/>
  

  <rect x="270" y="80" width="150" height="80" fill="#27ae60" stroke="#229954" stroke-width="2" rx="10"/>
  <text x="345" y="110" text-anchor="middle" font-family="Arial, sans-serif" font-size="14" font-weight="bold" fill="white">
    2. Bilag
  </text>
  <text x="345" y="130" text-anchor="middle" font-family="Arial, sans-serif" font-size="12" fill="white">
    Dokumentasjon
  </text>
  <text x="345" y="145" text-anchor="middle" font-family="Arial, sans-serif" font-size="12" fill="white">
    og kontroll
  </text>
  

  <path d="M 430 120 L 470 120 L 460 110 M 470 120 L 460 130" stroke="#e74c3c" stroke-width="3" fill="none"/>
  

  <rect x="490" y="80" width="150" height="80" fill="#f39c12" stroke="#e67e22" stroke-width="2" rx="10"/>
  <text x="565" y="110" text-anchor="middle" font-family="Arial, sans-serif" font-size="14" font-weight="bold" fill="white">
    3. Registrering
  </text>
  <text x="565" y="130" text-anchor="middle" font-family="Arial, sans-serif" font-size="12" fill="white">
    Debet og
  </text>
  <text x="565" y="145" text-anchor="middle" font-family="Arial, sans-serif" font-size="12" fill="white">
    kredit
  </text>
  

  <path d="M 650 120 L 690 120 L 680 110 M 690 120 L 680 130" stroke="#e74c3c" stroke-width="3" fill="none"/>
  

  <rect x="710" y="80" width="150" height="80" fill="#9b59b6" stroke="#8e44ad" stroke-width="2" rx="10"/>
  <text x="785" y="110" text-anchor="middle" font-family="Arial, sans-serif" font-size="14" font-weight="bold" fill="white">
    4. Hovedbok
  </text>
  <text x="785" y="130" text-anchor="middle" font-family="Arial, sans-serif" font-size="12" fill="white">
    Kontoføring
  </text>
  <text x="785" y="145" text-anchor="middle" font-family="Arial, sans-serif" font-size="12" fill="white">
    og saldo
  </text>
  

  <path d="M 785 170 Q 785 200 750 220 Q 700 240 450 240 Q 200 240 150 220 Q 125 210 125 200" 
        stroke="#e74c3c" stroke-width="3" fill="none"/>
  <path d="M 125 200 L 135 195 M 125 200 L 135 205" stroke="#e74c3c" stroke-width="3" fill="none"/>
  

  <rect x="50" y="260" width="150" height="80" fill="#e74c3c" stroke="#c0392b" stroke-width="2" rx="10"/>
  <text x="125" y="290" text-anchor="middle" font-family="Arial, sans-serif" font-size="14" font-weight="bold" fill="white">
    5. Avstemming
  </text>
  <text x="125" y="310" text-anchor="middle" font-family="Arial, sans-serif" font-size="12" fill="white">
    Kontroll og
  </text>
  <text x="125" y="325" text-anchor="middle" font-family="Arial, sans-serif" font-size="12" fill="white">
    korreksjon
  </text>
  

  <path d="M 210 300 L 250 300 L 240 290 M 250 300 L 240 310" stroke="#e74c3c" stroke-width="3" fill="none"/>
  

  <rect x="270" y="260" width="150" height="80" fill="#34495e" stroke="#2c3e50" stroke-width="2" rx="10"/>
  <text x="345" y="290" text-anchor="middle" font-family="Arial, sans-serif" font-size="14" font-weight="bold" fill="white">
    6. Periodisering
  </text>
  <text x="345" y="310" text-anchor="middle" font-family="Arial, sans-serif" font-size="12" fill="white">
    Justeringer
  </text>
  <text x="345" y="325" text-anchor="middle" font-family="Arial, sans-serif" font-size="12" fill="white">
    og avsetninger
  </text>
  

  <path d="M 430 300 L 470 300 L 460 290 M 470 300 L 460 310" stroke="#e74c3c" stroke-width="3" fill="none"/>
  

  <rect x="490" y="260" width="150" height="80" fill="#16a085" stroke="#138d75" stroke-width="2" rx="10"/>
  <text x="565" y="290" text-anchor="middle" font-family="Arial, sans-serif" font-size="14" font-weight="bold" fill="white">
    7. Rapporter
  </text>
  <text x="565" y="310" text-anchor="middle" font-family="Arial, sans-serif" font-size="12" fill="white">
    Regnskap og
  </text>
  <text x="565" y="325" text-anchor="middle" font-family="Arial, sans-serif" font-size="12" fill="white">
    analyser
  </text>
  

  <path d="M 650 300 L 690 300 L 680 290 M 690 300 L 680 310" stroke="#e74c3c" stroke-width="3" fill="none"/>
  

  <rect x="710" y="260" width="150" height="80" fill="#7f8c8d" stroke="#6c7b7d" stroke-width="2" rx="10"/>
  <text x="785" y="290" text-anchor="middle" font-family="Arial, sans-serif" font-size="14" font-weight="bold" fill="white">
    8. Arkivering
  </text>
  <text x="785" y="310" text-anchor="middle" font-family="Arial, sans-serif" font-size="12" fill="white">
    Oppbevaring
  </text>
  <text x="785" y="325" text-anchor="middle" font-family="Arial, sans-serif" font-size="12" fill="white">
    og sikring
  </text>
  

  <rect x="200" y="380" width="500" height="100" fill="#ecf0f1" stroke="#bdc3c7" stroke-width="2" rx="10"/>
  <text x="450" y="405" text-anchor="middle" font-family="Arial, sans-serif" font-size="16" font-weight="bold" fill="#2c3e50">
    Grunnleggende Prinsipper
  </text>
  
  <text x="220" y="430" font-family="Arial, sans-serif" font-size="12" fill="#2c3e50">
    • Fullstendighet: Alle transaksjoner registreres
  </text>
  <text x="220" y="445" font-family="Arial, sans-serif" font-size="12" fill="#2c3e50">
    • Nøyaktighet: Korrekte beløp og datoer
  </text>
  <text x="220" y="460" font-family="Arial, sans-serif" font-size="12" fill="#2c3e50">
    • Sporbarhet: Fra bilag til regnskap
  </text>
  
  <text x="480" y="430" font-family="Arial, sans-serif" font-size="12" fill="#2c3e50">
    • Kronologi: Tidsmessig rekkefølge
  </text>
  <text x="480" y="445" font-family="Arial, sans-serif" font-size="12" fill="#2c3e50">
    • Klarhet: Forståelige registreringer
  </text>
  <text x="480" y="460" font-family="Arial, sans-serif" font-size="12" fill="#2c3e50">
    • Dobbelt bokføring: Balanserte poster
  </text>
</svg>
